images/dist/wa-hover.svg

<svg width="27" height="30" viewBox="0 0 27 30" fill="none" xmlns="http://www.w3.org/2000/svg">
<g clip-path="url(#clip0_70_138)">
<path d="M22.3184 5.68945C19.8633 3.22852 16.5937 1.875 13.1191 1.875C5.94727 1.875 0.111328 7.71094 0.111328 14.8828C0.111328 17.1738 0.708984 19.4121 1.8457 21.3867L0 28.125L6.89648 26.3145C8.79492 27.3516 10.9336 27.8965 13.1133 27.8965H13.1191C20.2852 27.8965 26.25 22.0605 26.25 14.8887C26.25 11.4141 24.7734 8.15039 22.3184 5.68945ZM13.1191 25.7051C11.1738 25.7051 9.26953 25.1836 7.61133 24.1992L7.21875 23.9648L3.12891 25.0371L4.21875 21.0469L3.96094 20.6367C2.87695 18.9141 2.30859 16.9277 2.30859 14.8828C2.30859 8.92383 7.16016 4.07227 13.125 4.07227C16.0137 4.07227 18.7266 5.19727 20.7656 7.24219C22.8047 9.28711 24.0586 12 24.0527 14.8887C24.0527 20.8535 19.0781 25.7051 13.1191 25.7051ZM19.0488 17.6074C18.7266 17.4434 17.127 16.6582 16.8281 16.5527C16.5293 16.4414 16.3125 16.3887 16.0957 16.7168C15.8789 17.0449 15.2578 17.7715 15.0645 17.9941C14.877 18.2109 14.6836 18.2402 14.3613 18.0762C12.4512 17.1211 11.1973 16.3711 9.9375 14.209C9.60352 13.6348 10.2715 13.6758 10.8926 12.4336C10.998 12.2168 10.9453 12.0293 10.8633 11.8652C10.7812 11.7012 10.1309 10.1016 9.86133 9.45117C9.59766 8.81836 9.32813 8.90625 9.12891 8.89453C8.94141 8.88281 8.72461 8.88281 8.50781 8.88281C8.29102 8.88281 7.93945 8.96484 7.64062 9.28711C7.3418 9.61523 6.50391 10.4004 6.50391 12C6.50391 13.5996 7.66992 15.1465 7.82813 15.3633C7.99219 15.5801 10.1191 18.8613 13.3828 20.2734C15.4453 21.1641 16.2539 21.2402 17.2852 21.0879C17.9121 20.9941 19.207 20.3027 19.4766 19.541C19.7461 18.7793 19.7461 18.1289 19.6641 17.9941C19.5879 17.8477 19.3711 17.7656 19.0488 17.6074Z" fill="#FFC107"/>
</g>
<defs>
<clipPath id="clip0_70_138">
<rect width="26.25" height="30" fill="white"/>
</clipPath>
</defs>
</svg>

<svg width="27" height="30" fill="none" xmlns="http://www.w3.org/2000/svg"><g clip-path="url(#a)"><path d="M22.318 5.69a12.91 12.91 0 0 0-9.199-3.815C5.947 1.875.111 7.711.111 14.883c0 2.29.598 4.53 1.735 6.504L0 28.125l6.896-1.81a12.968 12.968 0 0 0 6.217 1.581h.006c7.166 0 13.131-5.835 13.131-13.007 0-3.475-1.477-6.739-3.932-9.2ZM13.12 25.704c-1.945 0-3.85-.521-5.508-1.506l-.392-.234-4.09 1.072 1.09-3.99-.258-.41a10.776 10.776 0 0 1-1.652-5.754c0-5.96 4.851-10.81 10.816-10.81 2.889 0 5.602 1.124 7.64 3.17 2.04 2.044 3.294 4.757 3.288 7.646 0 5.965-4.975 10.816-10.934 10.816Zm5.93-8.098c-.322-.164-1.922-.949-2.22-1.054-.3-.112-.517-.164-.733.164-.217.328-.838 1.055-1.031 1.277-.188.217-.381.246-.704.082-1.91-.955-3.164-1.705-4.424-3.867-.333-.574.335-.533.956-1.775.105-.217.052-.405-.03-.569-.082-.164-.732-1.763-1.002-2.414-.263-.633-.533-.545-.732-.556-.188-.012-.404-.012-.621-.012-.217 0-.569.082-.867.404-.3.328-1.137 1.113-1.137 2.713s1.166 3.146 1.324 3.363c.164.217 2.291 3.498 5.555 4.91 2.062.891 2.87.967 3.902.815.627-.094 1.922-.785 2.192-1.547.27-.762.27-1.412.187-1.547-.076-.146-.293-.228-.615-.387Z" fill="#FFC107"/></g><defs><clipPath id="a"><path fill="#fff" d="M0 0h26.25v30H0z"/></clipPath></defs></svg>
